Papirus-GTK/24x24/apps/credentials-preferences.svg

<svg height="24" width="24" xmlns="http://www.w3.org/2000/svg"><g transform="matrix(1 0 0 1.0322581 0 -.3870972)"><path d="m1.0117 14.034c-.00415.0875-.0117.1735-.0117.262 0 3.0125 2.46245 5.454 5.5 5.454h11.6875c2.658 0 4.8125-2.1365 4.8125-4.7725 0-.0865-.007-.1715-.0115-.257-.129 2.522-2.226 4.5295-4.801 4.5295h-11.6875c-2.95645 0-5.3615-2.315-5.4885-5.216z" opacity=".3"/><path d="m12 4.25c-2.8475 0-5.2725 1.729-6.3165 4.176-2.65065.391-4.6835 2.632-4.6835 5.3695 0 3.0125 2.46245 5.4545 5.5 5.4545h11.6875c2.658 0 4.8125-2.137 4.8125-4.7725 0-2.45-1.8575-4.4575-4.254-4.7305-.625-3.127-3.409-5.497-6.746-5.497z" fill="#ccc"/><path d="m12 4.25c-2.8475 0-5.2725 1.7285-6.3165 4.176-2.65065.3905-4.6835 2.6325-4.6835 5.37 0 .0805.00825.1585.0117.238.12535-2.617 2.1065-4.73 4.6718-5.108 1.044-2.4475 3.469-4.176 6.3165-4.176 3.337 0 6.121 2.3695 6.746 5.497 2.312.263 4.117 2.142 4.2425 4.4735.004-.081.0115-.161.0115-.243 0-2.45-1.8575-4.4575-4.254-4.7305-.625-3.1275-3.409-5.497-6.746-5.497z" fill="#fff" opacity=".2"/></g><path d="m12.5 8c-.514281 0-.968043.2598316-1.238281.6542969.723894.3018741 1.238281 1.0167463 1.238281 1.8457031 0 .171008-.02929.333392-.07031.492188.023788.00112.046239.007812.07031.007812.82845 0 1.5-.6716 1.5-1.5 0-.8284-.67155-1.5-1.5-1.5zm-2 1c-.82845 0-1.5.6716-1.5 1.5 0 .8284.67155 1.5 1.5 1.5.82845 0 1.5-.6716 1.5-1.5 0-.8284-.67155-1.5-1.5-1.5zm2 3c-.274055.000157-.519136.01965-.751953.04687-.271706.10567-.497148.304676-.748047.45313v.09766c1.500874.125435 2.49521.659505 2.966797 1.306641.307005.421243.419358.804319.474609 1.095699h1.558594v-.599609c0 0 0-2.404438-3.5-2.398438zm-2 1c-3.500117.002039-3.5 2.400391-3.5 2.400391v.599609h7v-.599609c0 0 0-2.404438-3.5-2.398438z" opacity=".5"/></svg>

<?xml version="1.0" encoding="UTF-8" standalone="no"?>
<!-- Created with Inkscape (http://www.inkscape.org/) -->

<svg
   xmlns:dc="http://purl.org/dc/elements/1.1/"
   xmlns:cc="http://creativecommons.org/ns#"
   xmlns:rdf="http://www.w3.org/1999/02/22-rdf-syntax-ns#"
   xmlns:svg="http://www.w3.org/2000/svg"
   xmlns="http://www.w3.org/2000/svg"
   xmlns:sodipodi="http://sodipodi.sourceforge.net/DTD/sodipodi-0.dtd"
   xmlns:inkscape="http://www.inkscape.org/namespaces/inkscape"
   id="svg2817"
   height="24"
   width="24"
   version="1.0"
   inkscape:version="0.91 r13725"
   sodipodi:docname="credentials-preferences.svg">
  <defs
     id="defs13" />
  <sodipodi:namedview
     pagecolor="#ffffff"
     bordercolor="#666666"
     borderopacity="1"
     objecttolerance="10"
     gridtolerance="10"
     guidetolerance="10"
     inkscape:pageopacity="0"
     inkscape:pageshadow="2"
     inkscape:window-width="1600"
     inkscape:window-height="843"
     id="namedview11"
     showgrid="false"
     inkscape:zoom="8.6599296"
     inkscape:cx="-8.9288694"
     inkscape:cy="10.869661"
     inkscape:window-x="0"
     inkscape:window-y="0"
     inkscape:window-maximized="1"
     inkscape:current-layer="svg2817" />
  <metadata
     id="metadata57">
    <rdf:RDF>
      <cc:Work
         rdf:about="">
        <dc:format>image/svg+xml</dc:format>
        <dc:type
           rdf:resource="http://purl.org/dc/dcmitype/StillImage" />
        <dc:title />
      </cc:Work>
    </rdf:RDF>
  </metadata>
  <g
     id="g4157"
     transform="matrix(1,0,0,1.0322581,0,-0.3870972)">
    <path
       d="M 1.0117,14.034 C 1.00755,14.1215 1,14.2075 1,14.296 1,17.3085 3.46245,19.75 6.5,19.75 l 11.6875,0 c 2.658,0 4.8125,-2.1365 4.8125,-4.7725 0,-0.0865 -0.007,-0.1715 -0.0115,-0.257 -0.129,2.522 -2.226,4.5295 -4.801,4.5295 L 6.5,19.25 c -2.95645,0 -5.3615,-2.315 -5.4885,-5.216 z"
       style="opacity:0.3;enable-background:new"
       id="path3237"
       inkscape:connector-curvature="0" />
    <path
       d="M 12,4.25 C 9.1525,4.25 6.7275,5.979 5.6835,8.426 3.03285,8.817 1,11.058 1,13.7955 1,16.808 3.46245,19.25 6.5,19.25 l 11.6875,0 C 20.8455,19.25 23,17.113 23,14.4775 23,12.0275 21.1425,10.02 18.746,9.747 18.121,6.62 15.337,4.25 12,4.25 Z"
       style="fill:#cccccc;fill-opacity:1;enable-background:new"
       id="path5884"
       inkscape:connector-curvature="0" />
    <path
       d="M 12,4.25 C 9.1525,4.25 6.7275,5.9785 5.6835,8.426 3.03285,8.8165 1,11.0585 1,13.796 1,13.8765 1.00825,13.9545 1.0117,14.034 1.13705,11.417 3.1182,9.304 5.6835,8.926 6.7275,6.4785 9.1525,4.75 12,4.75 c 3.337,0 6.121,2.3695 6.746,5.497 2.312,0.263 4.117,2.142 4.2425,4.4735 C 22.9925,14.6395 23,14.5595 23,14.4775 23,12.0275 21.1425,10.02 18.746,9.747 18.121,6.6195 15.337,4.25 12,4.25 Z"
       style="opacity:0.2;fill:#ffffff;enable-background:new"
       id="path4189"
       inkscape:connector-curvature="0" />
  </g>
  <path
     inkscape:connector-curvature="0"
     style="color:#000000;text-indent:0;text-decoration:none;text-decoration-line:none;text-transform:none;block-progression:tb;opacity:0.5;fill:#000000;fill-opacity:1"
     d="M 12.5,8 C 11.985719,8 11.531957,8.2598316 11.261719,8.6542969 11.985613,8.956171 12.5,9.6710432 12.5,10.5 c 0,0.171008 -0.02929,0.333392 -0.07031,0.492188 C 12.453478,10.993308 12.475929,11 12.5,11 13.32845,11 14,10.3284 14,9.5 14,8.6716 13.32845,8 12.5,8 Z m -2,1 C 9.67155,9 9,9.6716 9,10.5 9,11.3284 9.67155,12 10.5,12 11.32845,12 12,11.3284 12,10.5 12,9.6716 11.32845,9 10.5,9 Z m 2,3 c -0.274055,1.57e-4 -0.519136,0.01965 -0.751953,0.04687 C 11.476341,12.15254 11.250899,12.351546 11,12.5 l 0,0.09766 c 1.500874,0.125435 2.49521,0.659505 2.966797,1.306641 C 14.273802,14.325544 14.386155,14.70862 14.441406,15 L 16,15 16,14.400391 c 0,0 0,-2.404438 -3.5,-2.398438 L 12.5,12 Z m -2,1 C 6.999883,13.002039 7,15.400391 7,15.400391 L 7,16 l 7,0 0,-0.599609 c 0,0 0,-2.404438 -3.5,-2.398438 L 10.5,13 Z"
     id="path4193" />
</svg>
